X: 11388
T: Early Morning
R: jig
M: 6/8
K: Eminor
Bee cee|~a2f gfe|Bee cee|agf edc|
Bee cee|~a2f gfe|g2e dBf|1 dBf dec:|2 dBf g2a||
|:bdd ded|cea fga|bdd ded|cdf gfd|bdd ded|
cea fga|1 gfe dBf|dBf g2a:|2 gfe def|agf edc||

